X: 1300
T: The Woman of the House
R:Reel
N:Collected by F. O'Neill
B:O'Neill's 1300
Z:Transcribed by Trish O'Neil
M:C|
N:Staff breaks fixed [jc]
L:1/8
K:G
(G>B {c}(3BAB c)BAB|GBdge2d2\
|1(G>B {c}(3BAB c)BAB|e>A (3AGA e>A (3AGA:|2G2(BG)A2(GA)|BcAc BGG2||
f2fde2ed|gfge dBGB|f2fde2ed|e>A (3AAA e>A (3AAA|
f2fde2ed|gfge dBGB|G2(BG)A2(GA)|BcAc BGG2||
f2fde2ed|gfge dBGB|f2fde2ed|e>A (3AAA e>A (3AAA|
gaba gfed|efge dBAB|G2(BG)A2(GA)|BcAc BGG2|]


